icon/cg/arrow-top-right-r.svg

<svg viewBox="0 0 24 24" fill="none" xmlns="http://www.w3.org/2000/svg" height="1em" width="1em">
  <path d="M14 13.9633H16V7.96331H10V9.96331H12.5858L7.25623 15.2929L8.67044 16.7071L14 11.3775V13.9633Z" fill="currentColor"/>
  <path fill-rule="evenodd" clip-rule="evenodd" d="M23 19C23 21.2091 21.2091 23 19 23H5C2.79086 23 1 21.2091 1 19V5C1 2.79086 2.79086 1 5 1H19C21.2091 1 23 2.79086 23 5V19ZM19 21H5C3.89543 21 3 20.1046 3 19V5C3 3.89543 3.89543 3 5 3H19C20.1046 3 21 3.89543 21 5V19C21 20.1046 20.1046 21 19 21Z" fill="currentColor"/>
</svg>

<svg width="24" height="24" fill="none" xmlns="http://www.w3.org/2000/svg"><path d="M14 13.963h2v-6h-6v2h2.586l-5.33 5.33 1.414 1.414 5.33-5.33v2.586Z" fill="currentColor"/><path fill-rule="evenodd" clip-rule="evenodd" d="M23 19a4 4 0 0 1-4 4H5a4 4 0 0 1-4-4V5a4 4 0 0 1 4-4h14a4 4 0 0 1 4 4v14Zm-4 2H5a2 2 0 0 1-2-2V5a2 2 0 0 1 2-2h14a2 2 0 0 1 2 2v14a2 2 0 0 1-2 2Z" fill="currentColor"/></svg>
